packages/foundations/assets/icons/functional/images/editing/check.svg

<svg xmlns="http://www.w3.org/2000/svg" width="32" height="32" fill="none"><path fill="#1A1C1F" fill-rule="evenodd" d="M25.6 8.059c-.073.028-3.163 3.081-6.867 6.783L12 21.573l-1.533-1.52a1552 1552 0 0 0-2.79-2.76l-1.256-1.24h-.332c-.598 0-1.014.335-1.064.857-.052.546-.127.459 3.285 3.843 1.832 1.817 3.201 3.133 3.302 3.175.237.1.535.088.788-.03.262-.123 14.368-14.228 14.507-14.507.138-.276.088-.697-.115-.952-.29-.364-.808-.53-1.192-.38"/></svg>

<svg width="32" height="32" viewBox="0 0 32 32" fill="none" xmlns="http://www.w3.org/2000/svg"><path d="M25.600 8.059 C 25.527 8.087,22.437 11.140,18.733 14.842 L 12.000 21.573 10.467 20.053 C 9.623 19.216,8.368 17.974,7.677 17.293 L 6.421 16.053 6.089 16.053 C 5.491 16.053,5.075 16.388,5.025 16.910 C 4.973 17.456,4.898 17.369,8.310 20.753 C 10.142 22.570,11.511 23.886,11.612 23.928 C 11.849 24.028,12.147 24.016,12.400 23.898 C 12.662 23.775,26.768 9.670,26.907 9.391 C 27.045 9.115,26.995 8.694,26.792 8.439 C 26.502 8.075,25.984 7.909,25.600 8.059 " fill="#1A1C1F" stroke="none" fill-rule="evenodd"></path></svg>
